apps/scalable/frostwire.svg

<svg xmlns="http://www.w3.org/2000/svg" style="isolation:isolate" width="256" height="256"><defs><filter id="a" width="270.648" height="254.338" x="-7.32" y="2.95" filterUnits="userSpaceOnUse"><feGaussianBlur xmlns="http://www.w3.org/2000/svg" in="SourceGraphic" stdDeviation="4.294"/><feOffset xmlns="http://www.w3.org/2000/svg" dy="4" result="pf_100_offsetBlur"/><feFlood xmlns="http://www.w3.org/2000/svg" flood-opacity=".4"/><feComposite xmlns="http://www.w3.org/2000/svg" in2="pf_100_offsetBlur" operator="in" result="pf_100_dropShadow"/><feBlend xmlns="http://www.w3.org/2000/svg" in="SourceGraphic" in2="pf_100_dropShadow"/></filter></defs><g filter="url(#a)"><linearGradient id="b" x1=".25" x2=".75" y1=".036" y2=".902" gradientTransform="matrix(244.648 0 0 228.338 5.676 11.947)" gradientUnits="userSpaceOnUse"><stop offset="0%" stop-color="#2f5fdd"/><stop offset="100%" stop-color="#5884f4"/></linearGradient><path fill="url(#b)" d="M165.685 11.947c74.055 0 84.639 10.557 84.639 84.544v59.251c0 73.986-10.584 84.543-84.639 84.543h-75.37c-74.055 0-84.639-10.557-84.639-84.543V96.491c0-73.987 10.584-84.544 84.639-84.544h75.37z"/></g><g opacity=".4"><linearGradient id="c" x1=".517" x2=".517" y2="1"><stop offset="0%" stop-color="#fff"/><stop offset="12.5%" stop-opacity=".098" stop-color="#fff"/><stop offset="92.5%" stop-opacity=".098"/><stop offset="100%" stop-opacity=".498"/></linearGradient><path fill="none" stroke="url(#c)" stroke-linecap="round" stroke-linejoin="round" stroke-width="4.077" d="M165.685 11.947c74.055 0 84.639 10.557 84.639 84.544v59.251c0 73.986-10.584 84.543-84.639 84.543h-75.37c-74.055 0-84.639-10.557-84.639-84.543V96.491c0-73.987 10.584-84.544 84.639-84.544h75.37z" vector-effect="non-scaling-stroke"/></g><path fill="#FFF" d="M128 11.947v228.338h37.685c74.055 0 84.639-10.557 84.639-84.543V96.491c0-73.987-10.584-84.544-84.639-84.544H128z" opacity=".2"/><path fill="#221B1B" d="M76.823 205.732c-4.589 7.801-15.239 4.179-9.285-7.925 10.459-23.215 33.974-81.095 46.709-109.634 3.71-8.642 13.584-3.082 10.646 4.171-14.764 34.155-34.586 85.432-48.07 113.388zM140.768 171.042c-4.028 6.676-14.676 1.93-8.722-10.174 10.459-23.215 33.974-81.093 46.709-109.633 3.71-8.643 13.584-3.082 10.646 4.171-14.764 34.154-35.149 87.679-48.633 115.636M116.191 166.677c-4.028 8.924-14.114 4.74-8.159-7.363 10.457-23.215 14.859-37.243 27.594-65.782 3.71-8.643 13.584-3.082 10.646 4.171-14.764 34.153-16.597 41.017-30.081 68.974zM5.721 96.501c-.002.685-.045 1.177-.045 1.873v12.59c12.703 4.029 31.221 9.558 42.797 17.66-8.916 6.28-21.324 12.328-42.797 17.311v11.691c0 2.013.114 3.494.131 5.414 20.795-4.922 37.559-13.578 56.357-25.449 5.536 4.348 9.015 8.074 13.443 12.584 1.44-2.651 4.919-10.122 6.184-12.09-4.631-4.516-6.554-7.161-10.24-9.83 4.436-3.178 4.499-4.077 15.099-13.43-2.213-4.184-3.427-8.292-5.642-12.367-5.13 5.513-9.01 9.942-20.069 17.271-15.118-7.945-29.095-15.948-55.218-23.228zM94.524 109.519c1.822-4.139 2.97-6.928 5.69-13.097C89.785 75.835 88.29 67.063 78.649 49.527c-4.11-6.99-13.357-2-9.812 4.662 9.743 19.691 15.589 33.692 25.687 55.33M250.273 159.724c.003-.766.051-1.318.051-2.098v-12.977c-12.608-3.988-31.039-9.385-42.713-17.556 8.904-6.272 21.294-12.313 42.713-17.291V98.374c0-2.109-.118-3.665-.137-5.672-20.752 4.926-37.497 13.571-56.267 25.424-5.536-4.349-9.015-8.076-13.443-12.586-1.44 2.651-4.919 10.124-6.184 12.092 4.631 4.515 6.554 7.159 10.24 9.828-4.436 3.178-4.499 4.077-15.099 13.43 2.213 4.184 3.427 8.291 5.642 12.367 5.13-5.513 9.01-9.941 20.069-17.272 15.3 8.043 28.437 16.375 55.128 23.739z" opacity=".3"/><path fill="#221B1B" d="M250.273 159.724c.003-.766.051-1.318.051-2.098v-12.977c-12.608-3.988-31.039-9.385-42.713-17.556 8.904-6.272 21.294-12.313 42.713-17.291V98.374c0-2.109-.118-3.665-.137-5.672-20.752 4.926-37.497 13.571-56.267 25.424-5.536-4.349-9.015-8.076-13.443-12.586-1.44 2.651-4.919 10.124-6.184 12.092 4.631 4.515 6.554 7.159 10.24 9.828-4.436 3.178-4.499 4.077-15.099 13.43 2.213 4.184 3.427 8.291 5.642 12.367 5.13-5.513 9.01-9.941 20.069-17.272 15.3 8.043 28.437 16.375 55.128 23.739zM161.084 143.505c-1.822 4.139-2.971 6.928-5.691 13.098 10.43 20.586 11.925 29.358 21.566 46.894 4.11 6.99 13.357 2 9.812-4.662-9.743-19.691-15.589-33.692-25.687-55.33zM76.823 205.732c-4.589 7.801-15.239 4.179-9.285-7.925 10.459-23.215 33.974-81.095 46.709-109.634 3.71-8.642 13.584-3.082 10.646 4.171-14.764 34.155-34.586 85.432-48.07 113.388zM140.768 171.042c-4.028 6.676-14.676 1.93-8.722-10.174 10.459-23.215 33.974-81.093 46.709-109.633 3.71-8.643 13.584-3.082 10.646 4.171-14.764 34.154-35.149 87.679-48.633 115.636M116.191 166.677c-4.028 8.924-14.114 4.74-8.159-7.363 10.457-23.215 14.859-37.243 27.594-65.782 3.71-8.643 13.584-3.082 10.646 4.171-14.764 34.153-16.597 41.017-30.081 68.974zM5.721 96.501c-.002.685-.045 1.177-.045 1.873v12.59c12.703 4.029 31.221 9.558 42.797 17.66-8.916 6.28-21.324 12.328-42.797 17.311v11.691c0 2.013.114 3.494.131 5.414 20.795-4.922 37.559-13.578 56.357-25.449 5.536 4.348 9.015 8.074 13.443 12.584 1.44-2.651 4.919-10.122 6.184-12.09-4.631-4.516-6.554-7.161-10.24-9.83 4.436-3.178 4.499-4.077 15.099-13.43-2.213-4.184-3.427-8.292-5.642-12.367-5.13 5.513-9.01 9.942-20.069 17.271-15.118-7.945-29.095-15.948-55.218-23.228zM94.524 109.519c1.822-4.139 2.97-6.928 5.69-13.097C89.785 75.835 88.29 67.063 78.649 49.527c-4.11-6.99-13.357-2-9.812 4.662 9.743 19.691 15.589 33.692 25.687 55.33" opacity=".3"/><path fill="#221B1B" d="M161.084 143.505c-1.822 4.139-2.971 6.928-5.691 13.098 10.43 20.586 11.925 29.358 21.566 46.894 4.11 6.99 13.357 2 9.812-4.662-9.743-19.691-15.589-33.692-25.687-55.33z" opacity=".3"/><path fill="#FFF" d="M76.823 205.732c-4.589 7.801-15.239 4.179-9.285-7.925 10.459-23.215 33.974-81.095 46.709-109.634 3.71-8.642 13.584-3.082 10.646 4.171-14.764 34.155-34.586 85.432-48.07 113.388zM140.768 171.042c-4.028 6.676-14.676 1.93-8.722-10.174 10.459-23.215 33.974-81.093 46.709-109.633 3.71-8.643 13.584-3.082 10.646 4.171-14.764 34.154-35.149 87.679-48.633 115.636M116.191 166.677c-4.028 8.924-14.114 4.74-8.159-7.363 10.457-23.215 14.859-37.243 27.594-65.782 3.71-8.643 13.584-3.082 10.646 4.171-14.764 34.153-16.597 41.017-30.081 68.974zM5.721 96.501c-.002.685-.045 1.177-.045 1.873v12.59c12.703 4.029 31.221 9.558 42.797 17.66-8.916 6.28-21.324 12.328-42.797 17.311v11.691c0 2.013.114 3.494.131 5.414 20.795-4.922 37.559-13.578 56.357-25.449 5.536 4.348 9.015 8.074 13.443 12.584 1.44-2.651 4.919-10.122 6.184-12.09-4.631-4.516-6.554-7.161-10.24-9.83 4.436-3.178 4.499-4.077 15.099-13.43-2.213-4.184-3.427-8.292-5.642-12.367-5.13 5.513-9.01 9.942-20.069 17.271-15.118-7.945-29.095-15.948-55.218-23.228zM94.524 109.519c1.822-4.139 2.97-6.928 5.69-13.097C89.785 75.835 88.29 67.063 78.649 49.527c-4.11-6.99-13.357-2-9.812 4.662 9.743 19.691 15.589 33.692 25.687 55.33M250.273 159.724c.003-.766.051-1.318.051-2.098v-12.977c-12.608-3.988-31.039-9.385-42.713-17.556 8.904-6.272 21.294-12.313 42.713-17.291V98.374c0-2.109-.118-3.665-.137-5.672-20.752 4.926-37.497 13.571-56.267 25.424-5.536-4.349-9.015-8.076-13.443-12.586-1.44 2.651-4.919 10.124-6.184 12.092 4.631 4.515 6.554 7.159 10.24 9.828-4.436 3.178-4.499 4.077-15.099 13.43 2.213 4.184 3.427 8.291 5.642 12.367 5.13-5.513 9.01-9.941 20.069-17.272 15.3 8.043 28.437 16.375 55.128 23.739z"/><path fill="#FFF" d="M250.273 159.724c.003-.766.051-1.318.051-2.098v-12.977c-12.608-3.988-31.039-9.385-42.713-17.556 8.904-6.272 21.294-12.313 42.713-17.291V98.374c0-2.109-.118-3.665-.137-5.672-20.752 4.926-37.497 13.571-56.267 25.424-5.536-4.349-9.015-8.076-13.443-12.586-1.44 2.651-4.919 10.124-6.184 12.092 4.631 4.515 6.554 7.159 10.24 9.828-4.436 3.178-4.499 4.077-15.099 13.43 2.213 4.184 3.427 8.291 5.642 12.367 5.13-5.513 9.01-9.941 20.069-17.272 15.3 8.043 28.437 16.375 55.128 23.739zM161.084 143.505c-1.822 4.139-2.971 6.928-5.691 13.098 10.43 20.586 11.925 29.358 21.566 46.894 4.11 6.99 13.357 2 9.812-4.662-9.743-19.691-15.589-33.692-25.687-55.33zM76.823 205.732c-4.589 7.801-15.239 4.179-9.285-7.925 10.459-23.215 33.974-81.095 46.709-109.634 3.71-8.642 13.584-3.082 10.646 4.171-14.764 34.155-34.586 85.432-48.07 113.388zM140.768 171.042c-4.028 6.676-14.676 1.93-8.722-10.174 10.459-23.215 33.974-81.093 46.709-109.633 3.71-8.643 13.584-3.082 10.646 4.171-14.764 34.154-35.149 87.679-48.633 115.636M116.191 166.677c-4.028 8.924-14.114 4.74-8.159-7.363 10.457-23.215 14.859-37.243 27.594-65.782 3.71-8.643 13.584-3.082 10.646 4.171-14.764 34.153-16.597 41.017-30.081 68.974zM5.721 96.501c-.002.685-.045 1.177-.045 1.873v12.59c12.703 4.029 31.221 9.558 42.797 17.66-8.916 6.28-21.324 12.328-42.797 17.311v11.691c0 2.013.114 3.494.131 5.414 20.795-4.922 37.559-13.578 56.357-25.449 5.536 4.348 9.015 8.074 13.443 12.584 1.44-2.651 4.919-10.122 6.184-12.09-4.631-4.516-6.554-7.161-10.24-9.83 4.436-3.178 4.499-4.077 15.099-13.43-2.213-4.184-3.427-8.292-5.642-12.367-5.13 5.513-9.01 9.942-20.069 17.271-15.118-7.945-29.095-15.948-55.218-23.228zM94.524 109.519c1.822-4.139 2.97-6.928 5.69-13.097C89.785 75.835 88.29 67.063 78.649 49.527c-4.11-6.99-13.357-2-9.812 4.662 9.743 19.691 15.589 33.692 25.687 55.33"/><path fill="#FFF" d="M161.084 143.505c-1.822 4.139-2.971 6.928-5.691 13.098 10.43 20.586 11.925 29.358 21.566 46.894 4.11 6.99 13.357 2 9.812-4.662-9.743-19.691-15.589-33.692-25.687-55.33z"/></svg>

<svg xmlns="http://www.w3.org/2000/svg" style="isolation:isolate" width="256" height="256" viewBox="0 0 256 256">
 <defs>
  <filter id="AiJgElTB7NF4LdumxSWUZRostdublzgj" width="270.648" height="254.338" x="-7.32" y="2.95" filterUnits="userSpaceOnUse">
   <feGaussianBlur xmlns="http://www.w3.org/2000/svg" in="SourceGraphic" stdDeviation="4.294"/>
   <feOffset xmlns="http://www.w3.org/2000/svg" dx="0" dy="4" result="pf_100_offsetBlur"/>
   <feFlood xmlns="http://www.w3.org/2000/svg" flood-opacity=".4"/>
   <feComposite xmlns="http://www.w3.org/2000/svg" in2="pf_100_offsetBlur" operator="in" result="pf_100_dropShadow"/>
   <feBlend xmlns="http://www.w3.org/2000/svg" in="SourceGraphic" in2="pf_100_dropShadow" mode="normal"/>
  </filter>
 </defs>
 <g filter="url(#AiJgElTB7NF4LdumxSWUZRostdublzgj)">
  <linearGradient id="_lgradient_5" x1=".25" x2=".75" y1=".036" y2=".902" gradientTransform="matrix(244.648,0,0,228.338,5.676,11.947)" gradientUnits="userSpaceOnUse">
   <stop offset="0%" style="stop-color:rgb(47,95,221)"/>
   <stop offset="100%" style="stop-color:rgb(88,132,244)"/>
  </linearGradient>
  <path fill="url(#_lgradient_5)" d="M 165.685 11.947 C 239.74 11.947 250.324 22.504 250.324 96.491 L 250.324 155.742 C 250.324 229.728 239.74 240.285 165.685 240.285 L 90.315 240.285 C 16.26 240.285 5.676 229.728 5.676 155.742 L 5.676 96.491 C 5.676 22.504 16.26 11.947 90.315 11.947 L 165.685 11.947 Z"/>
 </g>
 <g opacity=".4">
  <linearGradient id="_lgradient_6" x1=".517" x2=".517" y1="0" y2="1">
   <stop offset="0%" style="stop-color:rgb(255,255,255)"/>
   <stop offset="12.5%" stop-opacity=".098" style="stop-color:rgb(255,255,255)"/>
   <stop offset="92.5%" stop-opacity=".098" style="stop-color:rgb(0,0,0)"/>
   <stop offset="100%" stop-opacity=".498" style="stop-color:rgb(0,0,0)"/>
  </linearGradient>
  <path fill="none" stroke="url(#_lgradient_6)" stroke-linecap="round" stroke-linejoin="round" stroke-width="4.077" d="M 165.685 11.947 C 239.74 11.947 250.324 22.504 250.324 96.491 L 250.324 155.742 C 250.324 229.728 239.74 240.285 165.685 240.285 L 90.315 240.285 C 16.26 240.285 5.676 229.728 5.676 155.742 L 5.676 96.491 C 5.676 22.504 16.26 11.947 90.315 11.947 L 165.685 11.947 Z" vector-effect="non-scaling-stroke"/>
 </g>
 <g opacity=".2">
  <path fill="#FFFFFF" d="M 128 11.947 L 128 240.285 L 165.685 240.285 C 239.74 240.285 250.324 229.728 250.324 155.742 L 250.324 96.491 C 250.324 22.504 239.74 11.947 165.685 11.947 L 128 11.947 Z"/>
 </g>
 <g>
  <g opacity=".3">
   <path fill="#221B1B" d="M 76.823 205.732 C 72.234 213.533 61.584 209.911 67.538 197.807 C 77.997 174.592 101.512 116.712 114.247 88.173 C 117.957 79.531 127.831 85.091 124.893 92.344 C 110.129 126.499 90.307 177.776 76.823 205.732 Z"/>
  </g>
  <g opacity=".3">
   <path fill="#221B1B" d="M 140.768 171.042 C 136.74 177.718 126.092 172.972 132.046 160.868 C 142.505 137.653 166.02 79.775 178.755 51.235 C 182.465 42.592 192.339 48.153 189.401 55.406 C 174.637 89.56 154.252 143.085 140.768 171.042"/>
  </g>
  <g opacity=".3">
   <path fill="#221B1B" d="M 116.191 166.677 C 112.163 175.601 102.077 171.417 108.032 159.314 C 118.489 136.099 122.891 122.071 135.626 93.532 C 139.336 84.889 149.21 90.45 146.272 97.703 C 131.508 131.856 129.675 138.72 116.191 166.677 Z"/>
  </g>
  <g opacity=".3">
   <path fill="#221B1B" d="M 5.721 96.501 C 5.719 97.186 5.676 97.678 5.676 98.374 L 5.676 110.964 C 18.379 114.993 36.897 120.522 48.473 128.624 C 39.557 134.904 27.149 140.952 5.676 145.935 L 5.676 157.626 C 5.676 159.639 5.79 161.12 5.807 163.04 C 26.602 158.118 43.366 149.462 62.164 137.591 C 67.7 141.939 71.179 145.665 75.607 150.175 C 77.047 147.524 80.526 140.053 81.791 138.085 C 77.16 133.569 75.237 130.924 71.551 128.255 C 75.987 125.077 76.05 124.178 86.65 114.825 C 84.437 110.641 83.223 106.533 81.008 102.458 C 75.878 107.971 71.998 112.4 60.939 119.729 C 45.821 111.784 31.844 103.781 5.721 96.501 Z"/>
  </g>
  <g opacity=".3">
   <path fill="#221B1B" d="M 94.524 109.519 C 96.346 105.38 97.494 102.591 100.214 96.422 C 89.785 75.835 88.29 67.063 78.649 49.527 C 74.539 42.537 65.292 47.527 68.837 54.189 C 78.58 73.88 84.426 87.881 94.524 109.519"/>
  </g>
  <g opacity=".3">
   <path fill="#221B1B" d="M 250.273 159.724 C 250.276 158.958 250.324 158.406 250.324 157.626 L 250.324 144.649 C 237.716 140.661 219.285 135.264 207.611 127.093 C 216.515 120.821 228.905 114.78 250.324 109.802 L 250.324 98.374 C 250.324 96.265 250.206 94.709 250.187 92.702 C 229.435 97.628 212.69 106.273 193.92 118.126 C 188.384 113.777 184.905 110.05 180.477 105.54 C 179.037 108.191 175.558 115.664 174.293 117.632 C 178.924 122.147 180.847 124.791 184.533 127.46 C 180.097 130.638 180.034 131.537 169.434 140.89 C 171.647 145.074 172.861 149.181 175.076 153.257 C 180.206 147.744 184.086 143.316 195.145 135.985 C 210.445 144.028 223.582 152.36 250.273 159.724 Z"/>
  </g>
  <g opacity=".3">
   <path fill="#221B1B" d="M 250.273 159.724 C 250.276 158.958 250.324 158.406 250.324 157.626 L 250.324 144.649 C 237.716 140.661 219.285 135.264 207.611 127.093 C 216.515 120.821 228.905 114.78 250.324 109.802 L 250.324 98.374 C 250.324 96.265 250.206 94.709 250.187 92.702 C 229.435 97.628 212.69 106.273 193.92 118.126 C 188.384 113.777 184.905 110.05 180.477 105.54 C 179.037 108.191 175.558 115.664 174.293 117.632 C 178.924 122.147 180.847 124.791 184.533 127.46 C 180.097 130.638 180.034 131.537 169.434 140.89 C 171.647 145.074 172.861 149.181 175.076 153.257 C 180.206 147.744 184.086 143.316 195.145 135.985 C 210.445 144.028 223.582 152.36 250.273 159.724 Z"/>
  </g>
  <g opacity=".3">
   <path fill="#221B1B" d="M 161.084 143.505 C 159.262 147.644 158.113 150.433 155.393 156.603 C 165.823 177.189 167.318 185.961 176.959 203.497 C 181.069 210.487 190.316 205.497 186.771 198.835 C 177.028 179.144 171.182 165.143 161.084 143.505 Z"/>
  </g>
  <g opacity=".3">
   <path fill="#221B1B" d="M 76.823 205.732 C 72.234 213.533 61.584 209.911 67.538 197.807 C 77.997 174.592 101.512 116.712 114.247 88.173 C 117.957 79.531 127.831 85.091 124.893 92.344 C 110.129 126.499 90.307 177.776 76.823 205.732 Z"/>
  </g>
  <g opacity=".3">
   <path fill="#221B1B" d="M 140.768 171.042 C 136.74 177.718 126.092 172.972 132.046 160.868 C 142.505 137.653 166.02 79.775 178.755 51.235 C 182.465 42.592 192.339 48.153 189.401 55.406 C 174.637 89.56 154.252 143.085 140.768 171.042"/>
  </g>
  <g opacity=".3">
   <path fill="#221B1B" d="M 116.191 166.677 C 112.163 175.601 102.077 171.417 108.032 159.314 C 118.489 136.099 122.891 122.071 135.626 93.532 C 139.336 84.889 149.21 90.45 146.272 97.703 C 131.508 131.856 129.675 138.72 116.191 166.677 Z"/>
  </g>
  <g opacity=".3">
   <path fill="#221B1B" d="M 5.721 96.501 C 5.719 97.186 5.676 97.678 5.676 98.374 L 5.676 110.964 C 18.379 114.993 36.897 120.522 48.473 128.624 C 39.557 134.904 27.149 140.952 5.676 145.935 L 5.676 157.626 C 5.676 159.639 5.79 161.12 5.807 163.04 C 26.602 158.118 43.366 149.462 62.164 137.591 C 67.7 141.939 71.179 145.665 75.607 150.175 C 77.047 147.524 80.526 140.053 81.791 138.085 C 77.16 133.569 75.237 130.924 71.551 128.255 C 75.987 125.077 76.05 124.178 86.65 114.825 C 84.437 110.641 83.223 106.533 81.008 102.458 C 75.878 107.971 71.998 112.4 60.939 119.729 C 45.821 111.784 31.844 103.781 5.721 96.501 Z"/>
  </g>
  <g opacity=".3">
   <path fill="#221B1B" d="M 94.524 109.519 C 96.346 105.38 97.494 102.591 100.214 96.422 C 89.785 75.835 88.29 67.063 78.649 49.527 C 74.539 42.537 65.292 47.527 68.837 54.189 C 78.58 73.88 84.426 87.881 94.524 109.519"/>
  </g>
  <g opacity=".3">
   <path fill="#221B1B" d="M 161.084 143.505 C 159.262 147.644 158.113 150.433 155.393 156.603 C 165.823 177.189 167.318 185.961 176.959 203.497 C 181.069 210.487 190.316 205.497 186.771 198.835 C 177.028 179.144 171.182 165.143 161.084 143.505 Z"/>
  </g>
  <path fill="#FFFFFF" d="M 76.823 205.732 C 72.234 213.533 61.584 209.911 67.538 197.807 C 77.997 174.592 101.512 116.712 114.247 88.173 C 117.957 79.531 127.831 85.091 124.893 92.344 C 110.129 126.499 90.307 177.776 76.823 205.732 Z"/>
  <path fill="#FFFFFF" d="M 140.768 171.042 C 136.74 177.718 126.092 172.972 132.046 160.868 C 142.505 137.653 166.02 79.775 178.755 51.235 C 182.465 42.592 192.339 48.153 189.401 55.406 C 174.637 89.56 154.252 143.085 140.768 171.042"/>
  <path fill="#FFFFFF" d="M 116.191 166.677 C 112.163 175.601 102.077 171.417 108.032 159.314 C 118.489 136.099 122.891 122.071 135.626 93.532 C 139.336 84.889 149.21 90.45 146.272 97.703 C 131.508 131.856 129.675 138.72 116.191 166.677 Z"/>
  <path fill="#FFFFFF" d="M 5.721 96.501 C 5.719 97.186 5.676 97.678 5.676 98.374 L 5.676 110.964 C 18.379 114.993 36.897 120.522 48.473 128.624 C 39.557 134.904 27.149 140.952 5.676 145.935 L 5.676 157.626 C 5.676 159.639 5.79 161.12 5.807 163.04 C 26.602 158.118 43.366 149.462 62.164 137.591 C 67.7 141.939 71.179 145.665 75.607 150.175 C 77.047 147.524 80.526 140.053 81.791 138.085 C 77.16 133.569 75.237 130.924 71.551 128.255 C 75.987 125.077 76.05 124.178 86.65 114.825 C 84.437 110.641 83.223 106.533 81.008 102.458 C 75.878 107.971 71.998 112.4 60.939 119.729 C 45.821 111.784 31.844 103.781 5.721 96.501 Z"/>
  <path fill="#FFFFFF" d="M 94.524 109.519 C 96.346 105.38 97.494 102.591 100.214 96.422 C 89.785 75.835 88.29 67.063 78.649 49.527 C 74.539 42.537 65.292 47.527 68.837 54.189 C 78.58 73.88 84.426 87.881 94.524 109.519"/>
  <path fill="#FFFFFF" d="M 250.273 159.724 C 250.276 158.958 250.324 158.406 250.324 157.626 L 250.324 144.649 C 237.716 140.661 219.285 135.264 207.611 127.093 C 216.515 120.821 228.905 114.78 250.324 109.802 L 250.324 98.374 C 250.324 96.265 250.206 94.709 250.187 92.702 C 229.435 97.628 212.69 106.273 193.92 118.126 C 188.384 113.777 184.905 110.05 180.477 105.54 C 179.037 108.191 175.558 115.664 174.293 117.632 C 178.924 122.147 180.847 124.791 184.533 127.46 C 180.097 130.638 180.034 131.537 169.434 140.89 C 171.647 145.074 172.861 149.181 175.076 153.257 C 180.206 147.744 184.086 143.316 195.145 135.985 C 210.445 144.028 223.582 152.36 250.273 159.724 Z"/>
  <path fill="#FFFFFF" d="M 250.273 159.724 C 250.276 158.958 250.324 158.406 250.324 157.626 L 250.324 144.649 C 237.716 140.661 219.285 135.264 207.611 127.093 C 216.515 120.821 228.905 114.78 250.324 109.802 L 250.324 98.374 C 250.324 96.265 250.206 94.709 250.187 92.702 C 229.435 97.628 212.69 106.273 193.92 118.126 C 188.384 113.777 184.905 110.05 180.477 105.54 C 179.037 108.191 175.558 115.664 174.293 117.632 C 178.924 122.147 180.847 124.791 184.533 127.46 C 180.097 130.638 180.034 131.537 169.434 140.89 C 171.647 145.074 172.861 149.181 175.076 153.257 C 180.206 147.744 184.086 143.316 195.145 135.985 C 210.445 144.028 223.582 152.36 250.273 159.724 Z"/>
  <path fill="#FFFFFF" d="M 161.084 143.505 C 159.262 147.644 158.113 150.433 155.393 156.603 C 165.823 177.189 167.318 185.961 176.959 203.497 C 181.069 210.487 190.316 205.497 186.771 198.835 C 177.028 179.144 171.182 165.143 161.084 143.505 Z"/>
  <path fill="#FFFFFF" d="M 76.823 205.732 C 72.234 213.533 61.584 209.911 67.538 197.807 C 77.997 174.592 101.512 116.712 114.247 88.173 C 117.957 79.531 127.831 85.091 124.893 92.344 C 110.129 126.499 90.307 177.776 76.823 205.732 Z"/>
  <path fill="#FFFFFF" d="M 140.768 171.042 C 136.74 177.718 126.092 172.972 132.046 160.868 C 142.505 137.653 166.02 79.775 178.755 51.235 C 182.465 42.592 192.339 48.153 189.401 55.406 C 174.637 89.56 154.252 143.085 140.768 171.042"/>
  <path fill="#FFFFFF" d="M 116.191 166.677 C 112.163 175.601 102.077 171.417 108.032 159.314 C 118.489 136.099 122.891 122.071 135.626 93.532 C 139.336 84.889 149.21 90.45 146.272 97.703 C 131.508 131.856 129.675 138.72 116.191 166.677 Z"/>
  <path fill="#FFFFFF" d="M 5.721 96.501 C 5.719 97.186 5.676 97.678 5.676 98.374 L 5.676 110.964 C 18.379 114.993 36.897 120.522 48.473 128.624 C 39.557 134.904 27.149 140.952 5.676 145.935 L 5.676 157.626 C 5.676 159.639 5.79 161.12 5.807 163.04 C 26.602 158.118 43.366 149.462 62.164 137.591 C 67.7 141.939 71.179 145.665 75.607 150.175 C 77.047 147.524 80.526 140.053 81.791 138.085 C 77.16 133.569 75.237 130.924 71.551 128.255 C 75.987 125.077 76.05 124.178 86.65 114.825 C 84.437 110.641 83.223 106.533 81.008 102.458 C 75.878 107.971 71.998 112.4 60.939 119.729 C 45.821 111.784 31.844 103.781 5.721 96.501 Z"/>
  <path fill="#FFFFFF" d="M 94.524 109.519 C 96.346 105.38 97.494 102.591 100.214 96.422 C 89.785 75.835 88.29 67.063 78.649 49.527 C 74.539 42.537 65.292 47.527 68.837 54.189 C 78.58 73.88 84.426 87.881 94.524 109.519"/>
  <path fill="#FFFFFF" d="M 161.084 143.505 C 159.262 147.644 158.113 150.433 155.393 156.603 C 165.823 177.189 167.318 185.961 176.959 203.497 C 181.069 210.487 190.316 205.497 186.771 198.835 C 177.028 179.144 171.182 165.143 161.084 143.505 Z"/>
 </g>
</svg>
